img/instagram.svg

<svg width="36" height="36" viewBox="0 0 36 36" fill="none" xmlns="http://www.w3.org/2000/svg">
	<path d="M36 0H0V36H36V0ZM18 11.4C21.6456 11.4 24.6 14.3556 24.6 18C24.6 21.6432 21.6456 24.6 18 24.6C14.3556 24.6 11.4 21.6432 11.4 18C11.4 14.3556 14.3556 11.4 18 11.4ZM31.2 31.2H4.8V15H7.6308C7.356 15.9528 7.2 16.9584 7.2 18C7.2 23.964 12.0372 28.8 18 28.8C23.9664 28.8 28.8 23.964 28.8 18C28.8 16.9584 28.644 15.9528 28.3692 15H31.2V31.2ZM31.2 6.0096V9.6288V10.8C31.2 10.8 30.6636 10.7868 30.0192 10.7976V10.8H26.4C25.746 10.8 25.2 10.8 25.2 10.8V4.8H30L30.0192 4.8036C30.0192 4.8036 31.2 4.8096 31.2 4.8C31.2 4.8 31.1976 6.006 31.1976 6.0096H31.2Z" fill="white" />
</svg>

<svg width="36" height="36" viewBox="0 0 36 36" fill="none" xmlns="http://www.w3.org/2000/svg"><path d="M36 0H0v36h36V0zM18 11.4a6.6 6.6 0 110 13.2 6.6 6.6 0 010-13.2zm13.2 19.8H4.8V15h2.83a10.81 10.81 0 00-.43 3c0 5.964 4.837 10.8 10.8 10.8 5.966 0 10.8-4.836 10.8-10.8a10.81 10.81 0 00-.43-3h2.83v16.2zm0-25.19v4.79s-.536-.013-1.18-.002v.002H25.2v-6H30l.02.004s1.18.006 1.18-.004l-.002 1.21h.002z" fill="#fff"/></svg>
